woo-category-slider-grid/admin/img/shapes/custom-border-radius.svg

<svg width="80" height="80" viewBox="0 0 80 80" fill="none" xmlns="http://www.w3.org/2000/svg">
<rect x="0.75" y="0.75" width="78.5" height="78.5" rx="2.25" stroke="#B6C0C6" stroke-width="1.5"/>
<rect x="12" y="12" width="56" height="56" rx="12" fill="#8796A1"/>
<path fill-rule="evenodd" clip-rule="evenodd" d="M24 13.25C18.0629 13.25 13.25 18.0629 13.25 24V32H10.75V24C10.75 16.6822 16.6822 10.75 24 10.75H32V13.25H24ZM56 13.25H48V10.75H56C63.3178 10.75 69.25 16.6822 69.25 24V32H66.75V24C66.75 18.0629 61.9371 13.25 56 13.25ZM13.25 48V56C13.25 61.9371 18.0629 66.75 24 66.75H32V69.25H24C16.6822 69.25 10.75 63.3178 10.75 56V48H13.25ZM66.75 56V48H69.25V56C69.25 63.3178 63.3178 69.25 56 69.25H48V66.75H56C61.9371 66.75 66.75 61.9371 66.75 56Z" fill="#556068"/>
</svg>

<svg xmlns="http://www.w3.org/2000/svg" width="80" height="80" fill="none" xmlns:v="https://vecta.io/nano"><rect x=".6" y=".6" width="78.8" height="78.8" rx="2.4" fill="#fff"/><rect x=".6" y=".6" width="78.8" height="78.8" rx="2.4" stroke="#8796a1" stroke-width="1.2"/><rect x="12" y="12" width="56" height="56" rx="12" fill="#58707f"/><path fill-rule="evenodd" d="M24 13.25c-5.937 0-10.75 4.813-10.75 10.75v8h-2.5v-8c0-7.318 5.932-13.25 13.25-13.25h8v2.5h-8zm32 0h-8v-2.5h8c7.318 0 13.25 5.932 13.25 13.25v8h-2.5v-8c0-5.937-4.813-10.75-10.75-10.75zM13.25 48v8c0 5.937 4.813 10.75 10.75 10.75h8v2.5h-8c-7.318 0-13.25-5.932-13.25-13.25v-8h2.5zm53.5 8v-8h2.5v8c0 7.318-5.932 13.25-13.25 13.25h-8v-2.5h8c5.937 0 10.75-4.813 10.75-10.75z" fill="#273239"/></svg>
